X: 1783
T: Ar Éirinn Ní Neosfainn Cé Hí
R: waltz
M: 3/4
K: Amajor
cB|A2E2F2|A3B {AB}c2|B4cB|A2E2F2|A3B cB|
A4cB|A2E2F2|AG AB cd|B4AB|c2dc BA|B2cB AF|A4||
cd|e2dc BA|e2fe dc|B4cd|e2dc BA|AG AB cd|e4({fg}a2|
e2dc BA|e2fe dc|B4AB|c2dc BA|B2cB AF|A4||

